src/containers/site/SiteTechnologyScreen/asset/tech_image.svg

<svg width="166" height="265" viewBox="0 0 166 265" fill="none" xmlns="http://www.w3.org/2000/svg">
<path fill-rule="evenodd" clip-rule="evenodd" d="M97.5157 117.892L96.3876 123.402C95.5819 127.156 92.2783 129.871 88.4913 129.871H79.064C75.1964 129.871 71.8123 127.156 71.0871 123.402L69.9591 117.892C69.8785 117.652 69.7174 117.413 69.3951 117.253H69.3145C69.0728 117.173 68.7505 117.173 68.5087 117.333L63.7548 120.448C60.5318 122.604 56.2614 122.205 53.5218 119.489L46.8341 112.861C44.1751 110.145 43.6917 105.913 45.8672 102.718L49.0096 98.0065C49.1708 97.7669 49.2513 97.4475 49.0902 97.128C48.929 96.7287 48.7679 96.569 48.4456 96.4892L42.8859 95.3711C39.0989 94.5725 36.3594 91.2982 36.3594 87.4648V78.121C36.3594 74.2877 39.0989 70.9335 42.8859 70.2147L48.4456 69.0967C48.6873 69.0168 48.929 68.8571 49.0902 68.5377C49.2513 68.2182 49.2513 67.8988 49.0902 67.6592L45.9478 62.9473C43.7723 59.7529 44.1751 55.5202 46.9147 52.8049L53.6024 46.1764C56.3419 43.541 60.6124 43.0619 63.8354 45.2181L68.5893 48.3327C68.831 48.4924 69.1533 48.5723 69.4756 48.4126C69.4756 48.3327 69.5562 48.3327 69.5562 48.3327C69.7979 48.2528 69.9591 48.0133 70.0397 47.6938L71.1677 42.1834C71.9734 38.4299 75.277 35.7146 79.1446 35.7146H88.5719C92.4395 35.7146 95.8236 38.4299 96.5488 42.1834L97.6768 47.6938C97.7574 47.9334 97.9185 48.173 98.2408 48.3327C98.5631 48.4924 98.8854 48.4924 99.1272 48.3327L103.881 45.2181C107.104 43.0619 111.375 43.4612 114.114 46.1764L120.802 52.8049C123.461 55.5202 123.944 59.7529 121.769 62.9473L118.626 67.6592C118.465 67.8988 118.385 68.2182 118.546 68.5377C118.626 68.937 118.868 69.0967 119.19 69.1765L124.75 70.2946C128.537 71.0932 131.277 74.3675 131.277 78.2009V87.5447C131.277 91.378 128.537 94.7322 124.75 95.451L119.19 96.569C118.949 96.6489 118.707 96.8086 118.546 97.128C118.385 97.4475 118.385 97.7669 118.546 98.0065L121.688 102.718C123.864 105.913 123.461 110.145 120.721 112.861L114.034 119.489C111.294 122.125 107.023 122.604 103.801 120.448L99.0466 117.333C98.8049 117.173 98.4826 117.093 98.1603 117.253H98.0797C97.7574 117.413 97.5962 117.652 97.5157 117.892ZM76.9696 116.534L78.0977 122.045C78.1783 122.444 78.5006 122.684 78.8229 122.763H88.2501C88.653 122.763 88.9753 122.444 89.0559 122.045L90.1839 116.534C90.7479 113.899 92.5206 111.663 95.099 110.625H95.1795C97.7579 109.586 100.578 109.826 102.834 111.343L107.588 114.458C107.91 114.697 108.313 114.697 108.636 114.378L115.323 107.75C115.565 107.51 115.646 107.031 115.404 106.711L112.261 101.999C110.73 99.7634 110.489 96.9682 111.536 94.4127C112.584 91.8571 114.84 90.1001 117.499 89.5411L123.058 88.4231C123.461 88.3432 123.784 88.0237 123.784 87.6244V78.2807C123.784 77.8814 123.461 77.5619 123.058 77.482L117.499 76.364C114.84 75.805 112.584 74.048 111.536 71.4924C110.489 68.9369 110.73 66.0619 112.261 63.8258L115.404 59.1139C115.646 58.7945 115.646 58.3952 115.323 58.0757L108.636 51.4472C108.394 51.2077 107.91 51.1278 107.588 51.3674L102.834 54.482C100.578 55.9993 97.7579 56.2389 95.1795 55.2007C92.6012 54.1625 90.8285 51.9264 90.2645 49.291L89.1364 43.7806C89.0559 43.3812 88.7336 43.0618 88.3307 43.0618H78.9034C78.5006 43.0618 78.1783 43.3812 78.0977 43.7806L76.9696 49.291C76.4056 51.9264 74.633 54.1625 72.0546 55.2007C69.4762 56.2389 66.5755 55.9993 64.3194 54.482L59.5655 51.3674C59.2432 51.1278 58.8403 51.1278 58.518 51.4472L51.8303 58.0757C51.5886 58.3153 51.508 58.7945 51.7497 59.1139L54.8921 63.8258C56.4231 66.0619 56.6648 68.857 55.6173 71.4126C54.5698 73.9681 52.3137 75.7251 49.6548 76.2841L44.0951 77.4022C43.6922 77.482 43.3699 77.8015 43.3699 78.2008V87.5446C43.3699 87.9439 43.6922 88.2633 44.0951 88.3432L49.6548 89.4613C52.3137 90.0203 54.5698 91.7772 55.6173 94.3328C56.6648 96.8884 56.4231 99.7634 54.8921 101.999L51.7497 106.711C51.508 107.031 51.508 107.43 51.8303 107.75L58.518 114.378C58.7597 114.618 59.2432 114.697 59.5655 114.458L64.3194 111.343C66.5755 109.826 69.3956 109.586 71.974 110.625H72.0546C74.633 111.663 76.4056 113.899 76.9696 116.534Z" fill="#FAF7F5"/>
<path fill-rule="evenodd" clip-rule="evenodd" d="M83.8182 58.4419C96.8853 58.4419 107.547 69.2009 107.547 82.3869C107.547 95.5728 96.8853 106.251 83.8182 106.332C70.751 106.332 60.0889 95.5728 60.0889 82.3869C60.0889 69.2009 70.751 58.4419 83.8182 58.4419ZM67.3038 82.306C67.3038 91.5281 74.7593 98.9704 83.8181 98.9704C92.8769 98.9704 100.332 91.5281 100.332 82.306C100.332 73.084 92.8769 65.6416 83.8181 65.6416C74.6791 65.6416 67.3038 73.084 67.3038 82.306Z" fill="#FAF7F5"/>
<path d="M60.4985 219.157C58.4529 219.157 56.8164 220.741 56.8164 222.721V261.049C56.8164 263.029 58.4529 264.612 60.4985 264.612C62.5442 264.612 64.1807 263.029 64.1807 261.049V222.721C64.1807 220.741 62.5442 219.157 60.4985 219.157Z" fill="#FAF7F5"/>
<path d="M104.684 219.157C102.638 219.157 101.002 220.741 101.002 222.721V261.049C101.002 263.029 102.638 264.612 104.684 264.612C106.73 264.612 108.366 263.029 108.366 261.049V222.721C108.366 220.741 106.73 219.157 104.684 219.157Z" fill="#FAF7F5"/>
<path d="M83.4087 219.157C81.3631 219.157 79.7266 220.728 79.7266 222.692V232.668C79.7266 234.632 81.3631 236.203 83.4087 236.203C85.4543 236.203 87.0908 234.632 87.0908 232.668V222.692C87.0908 220.728 85.4543 219.157 83.4087 219.157Z" fill="#FAF7F5"/>
<path d="M83.4087 245.943C81.3631 245.943 79.7266 247.52 79.7266 249.492V256.194C79.7266 258.165 81.3631 259.742 83.4087 259.742C85.4543 259.742 87.0908 258.165 87.0908 256.194V249.492C87.0908 247.52 85.4543 245.943 83.4087 245.943Z" fill="#FAF7F5"/>
<path fill-rule="evenodd" clip-rule="evenodd" d="M165.643 81.8549C165.643 113.068 147.877 140.3 121.829 154.075L146.751 191.181C147.475 192.295 147.555 193.649 146.912 194.843C146.269 196.038 145.063 196.754 143.696 196.754H120.543V203.045C120.543 208.778 115.8 213.476 110.012 213.476H55.4252C49.637 213.476 44.8938 208.778 44.8938 203.045V196.754H21.7408C20.3742 196.754 19.1683 196.038 18.5251 194.843C17.882 193.729 17.9624 192.295 18.6859 191.181L43.6076 153.757C17.882 139.902 0.356445 112.909 0.356445 81.8549C0.356445 36.7073 37.4173 0 82.9998 0C128.582 0 165.643 36.7073 165.643 81.8549ZM113.147 173.344V163.869L52.0487 169.045V178.52L113.147 173.344ZM52.1294 185.686L113.228 180.511V189.986L52.1294 195.162V185.686ZM83.0802 7.16623C41.5173 7.16623 7.67212 40.6885 7.67212 81.8548C7.67212 123.021 41.4369 156.543 83.0802 156.543C124.643 156.543 158.488 123.021 158.488 81.8548C158.488 40.6885 124.643 7.16623 83.0802 7.16623ZM61.9369 161.003L52.0487 161.878V157.818C55.2644 159.012 58.5605 160.127 61.9369 161.003ZM28.4936 189.668H44.8936V165.063L28.4936 189.668ZM109.931 206.389H55.3448C53.5762 206.389 52.0487 204.956 52.0487 203.124V202.328L113.147 197.152V203.124C113.147 204.876 111.7 206.389 109.931 206.389ZM120.382 165.063V189.668H136.782L120.382 165.063Z" fill="#FAF7F5"/>
</svg>

<svg width="166" height="265" fill="none" xmlns="http://www.w3.org/2000/svg"><path fill-rule="evenodd" clip-rule="evenodd" d="M97.516 117.892l-1.128 5.51c-.806 3.754-4.11 6.469-7.897 6.469h-9.427c-3.868 0-7.252-2.715-7.977-6.469l-1.128-5.51a1.07 1.07 0 00-.564-.639h-.08c-.242-.08-.564-.08-.806.08l-4.754 3.115c-3.223 2.156-7.494 1.757-10.233-.959l-6.688-6.628c-2.659-2.716-3.142-6.948-.967-10.143l3.143-4.712c.16-.24.241-.558.08-.878-.161-.4-.322-.559-.644-.639l-5.56-1.118c-3.787-.798-6.527-4.073-6.527-7.906V78.12c0-3.833 2.74-7.188 6.527-7.906l5.56-1.118c.241-.08.483-.24.644-.56.161-.319.161-.638 0-.878l-3.142-4.712a7.932 7.932 0 01.967-10.142l6.687-6.629c2.74-2.635 7.01-3.114 10.233-.958l4.754 3.115c.242.16.564.24.887.08 0-.08.08-.08.08-.08.242-.08.403-.32.484-.64l1.128-5.51c.805-3.753 4.109-6.468 7.977-6.468h9.427c3.867 0 7.252 2.715 7.977 6.468l1.128 5.51c.08.24.241.48.564.64.322.16.644.16.886 0l4.754-3.115c3.223-2.156 7.494-1.757 10.233.958l6.688 6.629c2.659 2.715 3.142 6.948.967 10.142l-3.143 4.712c-.161.24-.241.56-.08.879.08.399.322.559.644.639l5.56 1.118c3.787.798 6.527 4.073 6.527 7.906v9.344c0 3.833-2.74 7.187-6.527 7.906l-5.56 1.118c-.241.08-.483.24-.644.559-.161.32-.161.639 0 .879l3.142 4.711a7.932 7.932 0 01-.967 10.143l-6.687 6.628c-2.74 2.636-7.011 3.115-10.233.959l-4.754-3.115c-.242-.16-.564-.24-.887-.08h-.08a1.07 1.07 0 00-.564.639zm-20.546-1.358l1.128 5.511c.08.399.403.639.725.718h9.427c.403 0 .725-.319.806-.718l1.128-5.511c.564-2.635 2.337-4.871 4.915-5.909h.08c2.579-1.039 5.399-.799 7.655.718l4.754 3.115c.322.239.725.239 1.048-.08l6.687-6.628c.242-.24.323-.719.081-1.039l-3.143-4.712c-1.531-2.236-1.772-5.03-.725-7.586 1.048-2.556 3.304-4.313 5.963-4.872l5.559-1.118c.403-.08.726-.4.726-.799v-9.343c0-.4-.323-.72-.726-.799l-5.559-1.118c-2.659-.559-4.915-2.316-5.963-4.872-1.047-2.555-.806-5.43.725-7.666l3.143-4.712c.242-.32.242-.719-.081-1.038l-6.687-6.629c-.242-.24-.726-.32-1.048-.08l-4.754 3.115c-2.256 1.517-5.076 1.757-7.654.719-2.579-1.038-4.352-3.275-4.916-5.91l-1.128-5.51c-.08-.4-.402-.72-.805-.72h-9.428c-.402 0-.725.32-.805.72l-1.128 5.51c-.564 2.635-2.337 4.872-4.915 5.91-2.579 1.038-5.48.798-7.736-.719l-4.754-3.115c-.322-.24-.725-.24-1.047.08l-6.688 6.629c-.241.24-.322.718-.08 1.038l3.142 4.712c1.531 2.236 1.773 5.031.725 7.587-1.047 2.555-3.303 4.312-5.962 4.871l-5.56 1.118c-.403.08-.725.4-.725.799v9.344c0 .399.322.718.725.798l5.56 1.118c2.659.56 4.915 2.316 5.962 4.872 1.048 2.555.806 5.43-.725 7.666l-3.142 4.712c-.242.32-.242.719.08 1.039l6.688 6.628c.242.24.725.319 1.047.08l4.754-3.115c2.257-1.517 5.077-1.757 7.655-.718h.08c2.579 1.038 4.352 3.274 4.916 5.909z" fill="#FAF7F5"/><path fill-rule="evenodd" clip-rule="evenodd" d="M83.818 58.442c13.067 0 23.729 10.759 23.729 23.945s-10.662 23.864-23.729 23.945c-13.067 0-23.73-10.76-23.73-23.945 0-13.186 10.663-23.945 23.73-23.945zM67.304 82.306c0 9.222 7.455 16.664 16.514 16.664s16.514-7.442 16.514-16.664c0-9.222-7.455-16.664-16.514-16.664-9.139 0-16.514 7.442-16.514 16.664z" fill="#FAF7F5"/><path d="M60.498 219.157c-2.045 0-3.682 1.584-3.682 3.564v38.328c0 1.98 1.637 3.563 3.682 3.563 2.046 0 3.683-1.583 3.683-3.563v-38.328c0-1.98-1.637-3.564-3.682-3.564zM104.684 219.157c-2.046 0-3.682 1.584-3.682 3.564v38.328c0 1.98 1.636 3.563 3.682 3.563 2.046 0 3.682-1.583 3.682-3.563v-38.328c0-1.98-1.636-3.564-3.682-3.564zM83.409 219.157c-2.046 0-3.682 1.571-3.682 3.535v9.976c0 1.964 1.636 3.535 3.682 3.535 2.045 0 3.682-1.571 3.682-3.535v-9.976c0-1.964-1.637-3.535-3.682-3.535zM83.409 245.943c-2.046 0-3.682 1.577-3.682 3.549v6.702c0 1.971 1.636 3.548 3.682 3.548 2.045 0 3.682-1.577 3.682-3.548v-6.702c0-1.972-1.637-3.549-3.682-3.549z" fill="#FAF7F5"/><path fill-rule="evenodd" clip-rule="evenodd" d="M165.643 81.855c0 31.213-17.766 58.445-43.814 72.22l24.922 37.106c.724 1.114.804 2.468.161 3.662a3.6 3.6 0 01-3.216 1.911h-23.153v6.291c0 5.733-4.743 10.431-10.531 10.431H55.425c-5.788 0-10.531-4.698-10.531-10.431v-6.291H21.74a3.601 3.601 0 01-3.216-1.911c-.643-1.114-.563-2.548.16-3.662l24.923-37.424C17.882 139.902.356 112.909.356 81.855.356 36.707 37.417 0 83 0c45.582 0 82.643 36.707 82.643 81.855zm-52.496 91.489v-9.475l-61.098 5.176v9.475l61.098-5.176zm-61.018 12.342l61.099-5.175v9.475l-61.099 5.176v-9.476zM83.08 7.166c-41.563 0-75.408 33.522-75.408 74.689 0 41.166 33.765 74.688 75.408 74.688 41.563 0 75.408-33.522 75.408-74.688 0-41.167-33.845-74.689-75.408-74.689zM61.937 161.003l-9.888.875v-4.06c3.215 1.194 6.511 2.309 9.888 3.185zm-33.443 28.665h16.4v-24.605l-16.4 24.605zm81.437 16.721H55.345c-1.769 0-3.296-1.433-3.296-3.265v-.796l61.098-5.176v5.972c0 1.752-1.447 3.265-3.216 3.265zm10.451-41.326v24.605h16.4l-16.4-24.605z" fill="#FAF7F5"/></svg>
